X: 10
T: The Dawning Of The Day
R: barndance
M: 4/4
L: 1/8
K: Gmaj
|: GA |B2 B2 B2 AB | d3e fedB | AGAB G2GA | B6 GA |
B2 B2 B2 AB | d3e fedB | AGAB G2 GA|G6 BA |
Bdef g2fg |eged BABd |e2 e2 f2 d2|e3f gfed |
B2 B2 B2 AB | d3e fedB | AGAB G2GA |G6 |


Tune 1441	Setting 14824

